X:1
T:Title
%%score { ( 1 3 ) | 2 }
L:1/8
M:4/4
K:Eb
V:1 treble nm="Grand Piano"
V:3 treble 
V:2 bass 
V:1
 z4 z2 z[Q:1/4=86] E | GGEF G[FA][GB][GB] | [Ac][ce][Bd][Ac] [GB]3 [GB] | [Ge]edc BcBG | %4
 FGFG [DF]3 [FA] |[M:3/4] GG EF G[FA] |[M:1/4] [GB][GB] |[M:4/4] [EAc][Ece][EBd][EAc] [EGB]4 | %8
 [B,E][DF][B,EG][B,FA] [EGB][EAc][EGB][B,EG] | [A,DF]4 [G,E]4 | %10
 [EGB][Ge][Ad][Ac] [GB][Ac][GB][EG] | B4 z4 | A4 .A2 z2 | [EAc]4 [EGB]2 [G,E][A,EF] | %14
[M:3/4] [B,EG][B,FA] [GB][Ac] [GB]2 |[M:1/4] [GB][GB] |[M:4/4] [EAc][Ece][EBd][EAc] [EGB]4 | %17
 [B,E][DF][B,EG][B,FA] [EGB][EAc][EGB][B,EG] |[M:8/4] [A,DF]4 [G,E]4 z8 |] %19
V:2
 z4 z2 z [E,G,] | [E,B,E][E,B,E][E,G,][E,A,E] [E,B,E][E,B,][E,E][E,E] | %2
 [A,E][A,E][A,E][A,E] [E,E]3 [E,E] | [E,B,][G,B,E][A,E][A,E] [E,G,E][E,A,E][E,G,E][E,B,E] | %4
 [F,=A,E][F,A,E][F,A,E][F,A,E] [B,,B,]3 [B,,B,] | %5
[M:3/4] [E,B,E][E,B,E] [E,G,][E,A,E] [E,B,E][E,B,] |[M:1/4] [E,E][E,E] |[M:4/4] A,A,A,A, E,4 | %8
 G,B,E,E, E,E,E,E, | B,,4 E,4 | E,[E,B,][E,C][E,D] [E,E][E,E][E,E][E,B,] | %11
 [F,D][F,D][F,D][F,D] [B,D]4 | [B,,B,][B,,B,][B,,B,][B,,B,] [B,,B,]B,,B,,B,, | E,4 E,2 E,E, | %14
[M:3/4] E,E, [E,E][E,E] [E,E]2 |[M:1/4] [E,E][E,E] |[M:4/4] A,A,A,A, E,4 | G,B,E,E, E,E,E,E, | %18
[M:8/4] B,,4 E,4 z8 |] %19
V:3
 x8 | x8 | x8 | x8 | x8 |[M:3/4] x6 |[M:1/4] x2 |[M:4/4] x8 | x8 | x8 | x8 | AAAA F4 | %12
 DDDD d-[B,Ad-][CAd-][DAd] | x8 |[M:3/4] x6 |[M:1/4] x2 |[M:4/4] x8 | x8 |[M:8/4] x16 |] %19

